sz-lotos/img/icons/logo-f.svg

<svg width="289" height="86" viewBox="0 0 289 86" fill="none" xmlns="http://www.w3.org/2000/svg">
<path d="M39.04 47.85C38.13 47.85 37.4 47.11 37.4 46.21V34.53C37.4 34.02 37.63 33.54 38.04 33.23L50.88 23.28C51.6 22.72 52.63 22.85 53.18 23.57C53.74 24.29 53.61 25.32 52.89 25.87L40.69 35.33V46.21C40.69 47.12 39.95 47.85 39.05 47.85H39.04Z" fill="white"/>
<path d="M51.87 78.9901C50.96 78.9901 50.23 78.2501 50.23 77.3501V17.2301C50.23 16.6001 50.59 16.0301 51.15 15.7601C51.71 15.4801 52.38 15.5501 52.88 15.9401L65.72 25.8901C66.12 26.2001 66.36 26.6801 66.36 27.1901V46.7301C66.36 47.6401 65.62 48.3701 64.72 48.3701C63.82 48.3701 63.08 47.6301 63.08 46.7301V27.9901L53.53 20.5801V77.3501C53.53 78.2601 52.79 78.9901 51.89 78.9901H51.87Z" fill="white"/>
<path d="M57.9001 57.4101C56.9901 57.4101 56.2601 56.6701 56.2601 55.7701V4.99005L46.7101 12.4001V55.0501C46.7101 55.9601 45.9701 56.6901 45.0701 56.6901C44.1701 56.6901 43.4301 55.9501 43.4301 55.0501V11.6001C43.4301 11.0901 43.6601 10.6101 44.0701 10.3001L56.8901 0.340052C57.3801 -0.0399476 58.0601 -0.109948 58.6201 0.160052C59.1801 0.440052 59.5401 1.01005 59.5401 1.63005V55.7601C59.5401 56.6701 58.8001 57.4001 57.9001 57.4001V57.4101Z" fill="white"/>
<path d="M51.81 83.7401C51.69 83.7401 51.57 83.7301 51.45 83.7001C35.15 80.0401 23 69.0601 16.32 51.9501C11.32 39.1501 11.14 27.5901 11.13 27.1101C11.13 26.5401 11.41 26.0101 11.89 25.7101C12.37 25.4001 12.97 25.3701 13.48 25.6101C36.16 36.4001 45.82 51.1701 49.93 61.6601C54.42 73.1101 53.48 81.9201 53.44 82.2901C53.39 82.7501 53.14 83.1701 52.76 83.4401C52.48 83.6401 52.15 83.7401 51.81 83.7401ZM14.58 29.8001C14.93 33.9201 16.02 42.1701 19.42 50.8401C25.51 66.3801 35.88 76.1901 50.26 80.0201C50.28 76.9401 49.87 70.4101 46.81 62.6801C43.05 53.1801 34.41 39.9401 14.58 29.8001Z" fill="white"/>
<path d="M40.82 85.0801C25.37 85.0801 15.66 77.9301 9.94 71.2201C2.39 62.3401 0.130004 52.5501 0.0400038 52.1301C-0.0699962 51.6401 0.0400038 51.1301 0.360004 50.7401C0.670004 50.3501 1.14 50.1301 1.64 50.1301C25.82 50.2001 38.63 58.7801 45.12 65.9701C52.23 73.8501 53.5 81.6901 53.55 82.0201C53.68 82.8901 53.11 83.7101 52.25 83.8801C48.13 84.7101 44.32 85.0701 40.82 85.0701V85.0801ZM3.83 53.4501C4.87 56.6801 7.43 63.2301 12.53 69.1801C21.58 79.7501 34.16 83.7201 49.94 80.9801C49.23 78.4601 47.29 73.2201 42.56 68.0301C34.24 58.9101 20.88 53.8901 3.84 53.4501H3.83Z" fill="white"/>
<path d="M51.93 83.7401C51.59 83.7401 51.26 83.6401 50.98 83.4401C50.6 83.1701 50.35 82.7501 50.3 82.2901C50.26 81.9201 49.32 73.1101 53.81 61.6601C57.92 51.1701 67.58 36.3901 90.26 25.6101C90.77 25.3701 91.37 25.4001 91.85 25.7101C92.33 26.0201 92.61 26.5501 92.61 27.1101C92.61 27.6001 92.42 39.1501 87.42 51.9501C80.74 69.0601 68.6 80.0401 52.29 83.7001C52.17 83.7301 52.05 83.7401 51.93 83.7401ZM89.16 29.8001C69.33 39.9401 60.69 53.1801 56.93 62.6801C53.87 70.4101 53.47 76.9401 53.48 80.0201C67.86 76.1901 78.23 66.3801 84.32 50.8401C87.72 42.1701 88.81 33.9201 89.16 29.8001Z" fill="white"/>
<path d="M62.92 85.0801C59.41 85.0801 55.61 84.7101 51.49 83.8901C50.63 83.7201 50.06 82.9001 50.19 82.0301C50.24 81.7001 51.51 73.8601 58.62 65.9801C65.11 58.7901 77.92 50.2101 102.1 50.1401C102.6 50.1401 103.07 50.3701 103.38 50.7501C103.69 51.1401 103.81 51.6501 103.7 52.1401C103.61 52.5501 101.35 62.3501 93.8 71.2201C88.08 77.9401 78.37 85.0801 62.92 85.0801ZM53.8 80.9801C69.58 83.7201 82.16 79.7601 91.21 69.1801C96.3 63.2301 98.86 56.6801 99.9 53.4501C82.86 53.8901 69.5 58.9101 61.18 68.0301C56.45 73.2101 54.51 78.4501 53.8 80.9801Z" fill="white"/>
<path d="M132.33 28.51C135.46 28.51 137.7 29.63 139.17 31.46C140.59 33.35 141.23 35.94 141.23 38.95V41.07C141.23 41.78 140.64 42.37 139.93 42.37C139.22 42.37 138.63 41.78 138.63 41.07V38.77C138.63 36.59 138.22 34.64 137.22 33.23C136.22 31.81 134.68 30.99 132.38 30.99C130.08 30.99 128.55 31.82 127.54 33.23C126.54 34.65 126.12 36.59 126.12 38.77V60.24C126.12 62.42 126.53 64.37 127.54 65.72C128.54 67.14 130.08 67.96 132.38 67.96C134.68 67.96 136.21 67.13 137.22 65.72C138.22 64.36 138.63 62.42 138.63 60.24V56.64C138.63 55.93 139.22 55.34 139.93 55.34C140.64 55.34 141.23 55.93 141.23 56.64V60.06C141.23 63.07 140.58 65.66 139.17 67.49C137.7 69.38 135.46 70.5 132.33 70.5C129.2 70.5 126.96 69.38 125.55 67.49C124.08 65.66 123.43 63.07 123.43 60.06V38.95C123.43 35.94 124.08 33.35 125.55 31.46C126.97 29.63 129.21 28.51 132.33 28.51Z" fill="white"/>
<path d="M154.51 28.51C157.63 28.51 159.88 29.63 161.35 31.46C162.76 33.35 163.41 35.94 163.41 38.95V39.95C163.41 43.66 161.82 46.67 158.87 48.09C158.46 48.33 158.46 48.68 158.87 48.86C162 50.22 163.41 53.16 163.41 56.88V60.06C163.41 63.07 162.76 65.66 161.35 67.49C159.88 69.38 157.63 70.5 154.51 70.5C151.39 70.5 149.14 69.38 147.73 67.49C146.26 65.66 145.61 63.07 145.61 60.06V57.23C145.61 56.52 146.2 55.93 146.91 55.93C147.62 55.93 148.21 56.52 148.21 57.23V60.18C148.21 62.48 148.62 64.37 149.63 65.78C150.63 67.2 152.17 68.02 154.47 68.02C159.01 68.02 160.72 64.72 160.72 60V56.81C160.72 52.51 158.6 50.03 154.59 49.85H153.06C152.35 49.85 151.82 49.32 151.82 48.61C151.82 47.9 152.35 47.37 153.06 47.37H154.71C158.49 47.13 160.73 44.48 160.73 40.47V39C160.73 34.28 159.02 30.98 154.48 30.98C149.94 30.98 148.23 34.28 148.23 38.77V40.3C148.23 41.01 147.64 41.6 146.93 41.6C146.22 41.6 145.63 41.01 145.63 40.3V38.94C145.63 35.93 146.28 33.34 147.75 31.45C149.17 29.62 151.41 28.5 154.53 28.5L154.51 28.51Z" fill="white"/>
<path d="M194.78 31.2801H185.87C185.52 31.2801 185.28 31.5201 185.28 31.8701L184.22 60C184.04 62.83 183.81 65.31 182.8 67.14C181.79 68.9701 180.03 70.09 176.96 70.1501C176.25 70.1501 175.66 69.56 175.66 68.85C175.66 68.2 176.25 67.6101 176.9 67.6101C179.26 67.55 180.09 66.5501 180.68 65.3701C181.33 64.0101 181.45 62.1301 181.51 60.0601L182.69 30.51C182.69 29.57 183.51 28.8 184.46 28.8H196.37C197.37 28.8 198.14 29.57 198.14 30.57V68.67C198.14 69.44 197.49 70.09 196.78 70.09C196.01 70.09 195.37 69.44 195.37 68.67V31.8701C195.37 31.5201 195.13 31.2801 194.78 31.2801Z" fill="white"/>
<path d="M202.74 60.06V38.95C202.74 35.94 203.45 33.35 204.92 31.46C206.33 29.63 208.63 28.51 211.76 28.51C214.89 28.51 217.25 29.63 218.72 31.46C220.19 33.35 220.9 35.94 220.9 38.95V60.06C220.9 63.07 220.19 65.66 218.72 67.49C217.25 69.38 214.89 70.5 211.76 70.5C208.63 70.5 206.33 69.38 204.92 67.49C203.45 65.66 202.74 63.07 202.74 60.06ZM205.45 38.77V60.24C205.45 64.72 207.22 68.03 211.76 68.03C216.3 68.03 218.19 64.73 218.19 60.24V38.77C218.19 34.29 216.3 30.98 211.76 30.98C207.22 30.98 205.45 34.28 205.45 38.77Z" fill="white"/>
<path d="M233.88 70.1501C233.11 70.1501 232.52 69.5601 232.52 68.7901V32.2301C232.52 31.7601 232.11 31.3501 231.64 31.3501H225.33C224.62 31.3501 224.09 30.8201 224.09 30.1101C224.09 29.4001 224.62 28.8701 225.33 28.8701H242.37C243.08 28.8701 243.61 29.4001 243.61 30.1101C243.61 30.8201 243.08 31.3501 242.37 31.3501H236.12C235.65 31.3501 235.24 31.7601 235.24 32.2301V68.7901C235.24 69.5601 234.65 70.1501 233.88 70.1501Z" fill="white"/>
<path d="M248.09 60.06V38.95C248.09 35.94 248.8 33.35 250.27 31.46C251.68 29.63 253.98 28.51 257.11 28.51C260.24 28.51 262.6 29.63 264.07 31.46C265.54 33.35 266.25 35.94 266.25 38.95V60.06C266.25 63.07 265.54 65.66 264.07 67.49C262.6 69.38 260.24 70.5 257.11 70.5C253.98 70.5 251.68 69.38 250.27 67.49C248.8 65.66 248.09 63.07 248.09 60.06ZM250.8 38.77V60.24C250.8 64.72 252.57 68.03 257.11 68.03C261.65 68.03 263.54 64.73 263.54 60.24V38.77C263.54 34.29 261.65 30.98 257.11 30.98C252.57 30.98 250.8 34.28 250.8 38.77Z" fill="white"/>
<path d="M279.46 28.51C282.59 28.51 284.83 29.63 286.3 31.46C287.72 33.35 288.36 35.94 288.36 38.95V41.07C288.36 41.78 287.77 42.37 287.06 42.37C286.35 42.37 285.76 41.78 285.76 41.07V38.77C285.76 36.59 285.35 34.64 284.35 33.23C283.35 31.81 281.81 30.99 279.51 30.99C277.21 30.99 275.68 31.82 274.67 33.23C273.67 34.65 273.25 36.59 273.25 38.77V60.24C273.25 62.42 273.66 64.37 274.67 65.72C275.67 67.14 277.21 67.96 279.51 67.96C281.81 67.96 283.34 67.13 284.35 65.72C285.35 64.36 285.76 62.42 285.76 60.24V56.64C285.76 55.93 286.35 55.34 287.06 55.34C287.77 55.34 288.36 55.93 288.36 56.64V60.06C288.36 63.07 287.71 65.66 286.3 67.49C284.83 69.38 282.59 70.5 279.46 70.5C276.33 70.5 274.09 69.38 272.68 67.49C271.21 65.66 270.56 63.07 270.56 60.06V38.95C270.56 35.94 271.21 33.35 272.68 31.46C274.1 29.63 276.34 28.51 279.46 28.51Z" fill="white"/>
</svg>

<svg width="289" height="86" fill="none" xmlns="http://www.w3.org/2000/svg"><path d="M39.04 47.85c-.91 0-1.64-.74-1.64-1.64V34.53c0-.51.23-.99.64-1.3l12.84-9.95a1.63 1.63 0 012.3.29c.56.72.43 1.75-.29 2.3l-12.2 9.46v10.88c0 .91-.74 1.64-1.64 1.64h-.01z" fill="#fff"/><path d="M51.87 78.99c-.91 0-1.64-.74-1.64-1.64V17.23c0-.63.36-1.2.92-1.47.56-.28 1.23-.21 1.73.18l12.84 9.95c.4.31.64.79.64 1.3v19.54c0 .91-.74 1.64-1.64 1.64-.9 0-1.64-.74-1.64-1.64V27.99l-9.55-7.41v56.77c0 .91-.74 1.64-1.64 1.64h-.02z" fill="#fff"/><path d="M57.9 57.41c-.91 0-1.64-.74-1.64-1.64V4.99l-9.55 7.41v42.65c0 .91-.74 1.64-1.64 1.64-.9 0-1.64-.74-1.64-1.64V11.6c0-.51.23-.99.64-1.3L56.89.34c.49-.38 1.17-.45 1.73-.18.56.28.92.85.92 1.47v54.13c0 .91-.74 1.64-1.64 1.64v.01z" fill="#fff"/><path d="M51.81 83.74c-.12 0-.24-.01-.36-.04C35.15 80.04 23 69.06 16.32 51.95c-5-12.8-5.18-24.36-5.19-24.84 0-.57.28-1.1.76-1.4a1.64 1.64 0 011.59-.1C36.16 36.4 45.82 51.17 49.93 61.66c4.49 11.45 3.55 20.26 3.51 20.63a1.634 1.634 0 01-1.63 1.45zM14.58 29.8c.35 4.12 1.44 12.37 4.84 21.04 6.09 15.54 16.46 25.35 30.84 29.18.02-3.08-.39-9.61-3.45-17.34-3.76-9.5-12.4-22.74-32.23-32.88z" fill="#fff"/><path d="M40.82 85.08c-15.45 0-25.16-7.15-30.88-13.86C2.39 62.34.13 52.55.04 52.13c-.11-.49 0-1 .32-1.39.31-.39.78-.61 1.28-.61 24.18.07 36.99 8.65 43.48 15.84 7.11 7.88 8.38 15.72 8.43 16.05.13.87-.44 1.69-1.3 1.86-4.12.83-7.93 1.19-11.43 1.19v.01zM3.83 53.45c1.04 3.23 3.6 9.78 8.7 15.73 9.05 10.57 21.63 14.54 37.41 11.8-.71-2.52-2.65-7.76-7.38-12.95-8.32-9.12-21.68-14.14-38.72-14.58h-.01z" fill="#fff"/><path d="M51.93 83.74a1.634 1.634 0 01-1.63-1.45c-.04-.37-.98-9.18 3.51-20.63 4.11-10.49 13.77-25.27 36.45-36.05a1.64 1.64 0 011.59.1c.48.31.76.84.76 1.4 0 .49-.19 12.04-5.19 24.84C80.74 69.06 68.6 80.04 52.29 83.7c-.12.03-.24.04-.36.04zM89.16 29.8C69.33 39.94 60.69 53.18 56.93 62.68c-3.06 7.73-3.46 14.26-3.45 17.34 14.38-3.83 24.75-13.64 30.84-29.18 3.4-8.67 4.49-16.92 4.84-21.04z" fill="#fff"/><path d="M62.92 85.08c-3.51 0-7.31-.37-11.43-1.19-.86-.17-1.43-.99-1.3-1.86.05-.33 1.32-8.17 8.43-16.05 6.49-7.19 19.3-15.77 43.48-15.84.5 0 .97.23 1.28.61.31.39.43.9.32 1.39-.09.41-2.35 10.21-9.9 19.08-5.72 6.72-15.43 13.86-30.88 13.86zm-9.12-4.1c15.78 2.74 28.36-1.22 37.41-11.8 5.09-5.95 7.65-12.5 8.69-15.73-17.04.44-30.4 5.46-38.72 14.58-4.73 5.18-6.67 10.42-7.38 12.95zm78.53-52.47c3.13 0 5.37 1.12 6.84 2.95 1.42 1.89 2.06 4.48 2.06 7.49v2.12c0 .71-.59 1.3-1.3 1.3-.71 0-1.3-.59-1.3-1.3v-2.3c0-2.18-.41-4.13-1.41-5.54-1-1.42-2.54-2.24-4.84-2.24s-3.83.83-4.84 2.24c-1 1.42-1.42 3.36-1.42 5.54v21.47c0 2.18.41 4.13 1.42 5.48 1 1.42 2.54 2.24 4.84 2.24s3.83-.83 4.84-2.24c1-1.36 1.41-3.3 1.41-5.48v-3.6c0-.71.59-1.3 1.3-1.3.71 0 1.3.59 1.3 1.3v3.42c0 3.01-.65 5.6-2.06 7.43-1.47 1.89-3.71 3.01-6.84 3.01s-5.37-1.12-6.78-3.01c-1.47-1.83-2.12-4.42-2.12-7.43V38.95c0-3.01.65-5.6 2.12-7.49 1.42-1.83 3.66-2.95 6.78-2.95zm22.18 0c3.12 0 5.37 1.12 6.84 2.95 1.41 1.89 2.06 4.48 2.06 7.49v1c0 3.71-1.59 6.72-4.54 8.14-.41.24-.41.59 0 .77 3.13 1.36 4.54 4.3 4.54 8.02v3.18c0 3.01-.65 5.6-2.06 7.43-1.47 1.89-3.72 3.01-6.84 3.01-3.12 0-5.37-1.12-6.78-3.01-1.47-1.83-2.12-4.42-2.12-7.43v-2.83c0-.71.59-1.3 1.3-1.3.71 0 1.3.59 1.3 1.3v2.95c0 2.3.41 4.19 1.42 5.6 1 1.42 2.54 2.24 4.84 2.24 4.54 0 6.25-3.3 6.25-8.02v-3.19c0-4.3-2.12-6.78-6.13-6.96h-1.53c-.71 0-1.24-.53-1.24-1.24s.53-1.24 1.24-1.24h1.65c3.78-.24 6.02-2.89 6.02-6.9V39c0-4.72-1.71-8.02-6.25-8.02s-6.25 3.3-6.25 7.79v1.53c0 .71-.59 1.3-1.3 1.3-.71 0-1.3-.59-1.3-1.3v-1.36c0-3.01.65-5.6 2.12-7.49 1.42-1.83 3.66-2.95 6.78-2.95l-.02.01zm40.27 2.77h-8.91c-.35 0-.59.24-.59.59L184.22 60c-.18 2.83-.41 5.31-1.42 7.14s-2.77 2.95-5.84 3.01c-.71 0-1.3-.59-1.3-1.3 0-.65.59-1.24 1.24-1.24 2.36-.06 3.19-1.06 3.78-2.24.65-1.36.77-3.24.83-5.31l1.18-29.55c0-.94.82-1.71 1.77-1.71h11.91c1 0 1.77.77 1.77 1.77v38.1c0 .77-.65 1.42-1.36 1.42-.77 0-1.41-.65-1.41-1.42v-36.8c0-.35-.24-.59-.59-.59zm7.96 28.78V38.95c0-3.01.71-5.6 2.18-7.49 1.41-1.83 3.71-2.95 6.84-2.95s5.49 1.12 6.96 2.95c1.47 1.89 2.18 4.48 2.18 7.49v21.11c0 3.01-.71 5.6-2.18 7.43-1.47 1.89-3.83 3.01-6.96 3.01s-5.43-1.12-6.84-3.01c-1.47-1.83-2.18-4.42-2.18-7.43zm2.71-21.29v21.47c0 4.48 1.77 7.79 6.31 7.79 4.54 0 6.43-3.3 6.43-7.79V38.77c0-4.48-1.89-7.79-6.43-7.79s-6.31 3.3-6.31 7.79zm28.43 31.38c-.77 0-1.36-.59-1.36-1.36V32.23c0-.47-.41-.88-.88-.88h-6.31c-.71 0-1.24-.53-1.24-1.24s.53-1.24 1.24-1.24h17.04c.71 0 1.24.53 1.24 1.24s-.53 1.24-1.24 1.24h-6.25c-.47 0-.88.41-.88.88v36.56c0 .77-.59 1.36-1.36 1.36zm14.21-10.09V38.95c0-3.01.71-5.6 2.18-7.49 1.41-1.83 3.71-2.95 6.84-2.95s5.49 1.12 6.96 2.95c1.47 1.89 2.18 4.48 2.18 7.49v21.11c0 3.01-.71 5.6-2.18 7.43-1.47 1.89-3.83 3.01-6.96 3.01s-5.43-1.12-6.84-3.01c-1.47-1.83-2.18-4.42-2.18-7.43zm2.71-21.29v21.47c0 4.48 1.77 7.79 6.31 7.79 4.54 0 6.43-3.3 6.43-7.79V38.77c0-4.48-1.89-7.79-6.43-7.79s-6.31 3.3-6.31 7.79zm28.66-10.26c3.13 0 5.37 1.12 6.84 2.95 1.42 1.89 2.06 4.48 2.06 7.49v2.12c0 .71-.59 1.3-1.3 1.3-.71 0-1.3-.59-1.3-1.3v-2.3c0-2.18-.41-4.13-1.41-5.54-1-1.42-2.54-2.24-4.84-2.24s-3.83.83-4.84 2.24c-1 1.42-1.42 3.36-1.42 5.54v21.47c0 2.18.41 4.13 1.42 5.48 1 1.42 2.54 2.24 4.84 2.24s3.83-.83 4.84-2.24c1-1.36 1.41-3.3 1.41-5.48v-3.6c0-.71.59-1.3 1.3-1.3.71 0 1.3.59 1.3 1.3v3.42c0 3.01-.65 5.6-2.06 7.43-1.47 1.89-3.71 3.01-6.84 3.01s-5.37-1.12-6.78-3.01c-1.47-1.83-2.12-4.42-2.12-7.43V38.95c0-3.01.65-5.6 2.12-7.49 1.42-1.83 3.66-2.95 6.78-2.95z" fill="#fff"/></svg>
